assets/svg/ficon/arrow-circle-down.svg

<?xml version="1.0" encoding="utf-8"?>
<svg width="1792" height="1792" viewBox="0 0 1792 1792" xmlns="http://www.w3.org/2000/svg"><path d="M1412 897q0-27-18-45l-91-91q-18-18-45-18t-45 18l-189 189v-502q0-26-19-45t-45-19h-128q-26 0-45 19t-19 45v502l-189-189q-19-19-45-19t-45 19l-91 91q-18 18-18 45t18 45l362 362 91 91q18 18 45 18t45-18l91-91 362-362q18-18 18-45zm252-1q0 209-103 385.5t-279.5 279.5-385.5 103-385.5-103-279.5-279.5-103-385.5 103-385.5 279.5-279.5 385.5-103 385.5 103 279.5 279.5 103 385.5z" fill="#60be86"/></svg>

<svg width="1792" height="1792" xmlns="http://www.w3.org/2000/svg"><path d="M1412 897q0-27-18-45l-91-91q-18-18-45-18t-45 18l-189 189V448q0-26-19-45t-45-19H832q-26 0-45 19t-19 45v502L579 761q-19-19-45-19t-45 19l-91 91q-18 18-18 45t18 45l362 362 91 91q18 18 45 18t45-18l91-91 362-362q18-18 18-45zm252-1q0 209-103 385.5T1281.5 1561 896 1664t-385.5-103T231 1281.5 128 896t103-385.5T510.5 231 896 128t385.5 103T1561 510.5 1664 896z" fill="#60be86"/></svg>
